X:31
T:Monetville
F:Monetville
R:slip jig
C:Simon Dew
M:9/8
L:1/8
Q:3/8=130
K:DMix
P:A
"D7;(E7sus4)"A2d def gfe|"D7sus4;(F)"d2A cdc BAG|
"D7;(E7sus4)"A2d def gfe|"D7sus4;(F)"d2A cdc B3:|
P:B
|:"A7;(B7sus4)"e2e d^cd e2A|"A7sus4;(C)"d2d cBc d3|
  "A7;(C#m7b5)"e2e d^cd e2A|"A7sus4;(D7)"cdc BAG ";(Ebm7b5)" d3:|

